X: 30709
T: Oriental, The
R: polka
M: 2/4
K: Gdorian
|:B>A AG|B>A AG|AG/A/ BA|GE ED|
B>A AG|B>A AG|AG/A/ BA|G2 G2:|
K: Gmaj
|:B2 BA|GE ED|EA AG/A/|BA AG/A/|
B2 BA|GE ED|EA AB/A/|G2 G2:|

